**harm	**harte	**silbe	**silbe	**rhyme	**timestamp	**phrase	**leadinstrument	**kern
*M4/4	*M4/4	*	*	*	*	*	*	*
*	*	*	*	*	*	*	*	*
*	*	*	*	*	*	*	*	*
*b:	*b:	*	*	*	*b:	*b:	*b:	*b:
*	*	*	*	*	*	*	*	*
*	*	*	*	*	*	*	*	*
1r;	N	.	.	.	0	.	r	1r;
=1	=1	=1	=1	=1	=1	=1	=1	=1
*>Letter>A	*>Letter>A	*>Letter>A	*>Letter>A	*>Letter>A	*>Letter>A	*>Letter>A	*>Letter>A	*>Letter>A
*>Label>Intro	*>Label>Intro	*>Label>Intro	*>Label>Intro	*>Label>Intro	*>Label>Intro	*>Label>Intro	*>Label>Intro	*>Label>Intro
1-VI	G:maj	.	.	.	1.285	newline	guitar	1G- 1b- 1dd-
=2	=2	=2	=2	=2	=2	=2	=2	=2
1-VI	G:maj	.	.	.	2.689	.	guitar	1G- 1b- 1dd-
=3	=3	=3	=3	=3	=3	=3	=3	=3
1-III	D:maj	.	.	.	4.094	.	guitar	1D- 1f 1a-
=4	=4	=4	=4	=4	=4	=4	=4	=4
1-IIIm7	D:7	.	.	.	5.498	.	guitar	1D- 1f 1a- 1cc#
=5	=5	=5	=5	=5	=5	=5	=5	=5
1-VI	G:maj	.	.	.	6.902	newline	guitar	1G- 1b- 1dd-
=6	=6	=6	=6	=6	=6	=6	=6	=6
1-VI	G:maj	.	.	.	8.318	.	guitar	1G- 1b- 1dd-
=7	=7	=7	=7	=7	=7	=7	=7	=7
1i	B:min	.	.	.	9.734	->newline	guitar	1B 1dd 1ff#
=8	=8	=8	=8	=8	=8	=8	=8	=8
1i	B:min	.	.	.	11.16	.	guitar	1B 1dd 1ff#
=9	=9	=9	=9	=9	=9	=9	=9	=9
1-VI	G:maj	.	.	.	12.586	.	guitar	1G- 1b- 1dd-
=10	=10	=10	=10	=10	=10	=10	=10	=10
1-VI	G:maj	.	.	.	14.012	.	guitar	1G- 1b- 1dd-
=11	=11	=11	=11	=11	=11	=11	=11	=11
1-III	D:maj	.	.	.	15.438	newline	guitar	1D- 1f 1a-
=12	=12	=12	=12	=12	=12	=12	=12	=12
1-III	D:maj	.	.	.	16.858	.	guitar	1D- 1f 1a-
=13	=13	=13	=13	=13	=13	=13	=13	=13
1-VI	G:maj	.	.	.	18.278	.	guitar	1G- 1b- 1dd-
=14	=14	=14	=14	=14	=14	=14	=14	=14
1-VI	G:maj	.	.	.	19.698	.	guitar	1G- 1b- 1dd-
.	.	.	.	.	.	.	.	.
.	.	There's	.	.	.	.	.	.
.	.	a	.	.	.	.	.	.
.	.	_	.	.	.	.	.	.
.	.	light	.	.	.	.	.	.
=15	=15	=15	=15	=15	=15	=15	=15	=15
*>Letter>B	*>Letter>B	*>Letter>B	*>Letter>B	*>Letter>B	*>Letter>B	*>Letter>B	*>Letter>B	*>Letter>B
*>Label>Verse	*>Label>Verse	*>Label>Verse	*>Label>Verse	*>Label>Verse	*>Label>Verse	*>Label>Verse	*>Label>Verse	*>Label>Verse
1i	B:min	_	.	.	21.118	newline	voice	1B 1dd 1ff#
.	.	_	.	.	.	.	.	.
.	.	in	.	.	.	.	.	.
.	.	_	.	.	.	.	.	.
.	.	your	.	.	.	.	.	.
.	.	_	.	.	.	.	.	.
.	.	win	.	.	.	.	.	.
=16	=16	=16	=16	=16	=16	=16	=16	=16
1i	B:min	_	.	.	22.54	.	voice	1B 1dd 1ff#
.	.	dow	.	.	.	.	.	.
.	.	.	.	.	.	.	.	.
.	.	.	.	.	.	.	.	.
.	.	there's	.	.	.	.	.	.
.	.	a	.	.	.	.	.	.
.	.	sha	.	.	.	.	.	.
=17	=17	=17	=17	=17	=17	=17	=17	=17
1iv	E:min	_	.	.	23.962	.	voice	1E 1g 1b
.	.	dow	.	.	.	.	.	.
.	.	on	.	.	.	.	.	.
.	.	_	.	.	.	.	.	.
.	.	the	.	.	.	.	.	.
.	.	street	.	A	.	.	.	.
=18	=18	=18	=18	=18	=18	=18	=18	=18
1iv	E:min	_	.	.	25.384	.	voice	1E 1g 1b
.	.	.	.	.	.	.	.	.
.	.	.	.	.	.	.	.	.
.	.	.	.	.	.	.	.	.
.	.	Two	.	.	.	.	.	.
.	.	sil-	.	.	.	.	.	.
.	.	-hou-	.	.	.	.	.	.
=19	=19	=19	=19	=19	=19	=19	=19	=19
1-III	D:maj	-ettes	.	.	26.806	newline	voice	1D- 1f 1a-
.	.	tell	.	.	.	.	.	.
.	.	me	.	.	.	.	.	.
.	.	_	.	.	.	.	.	.
.	.	it's	.	.	.	.	.	.
.	.	_	.	.	.	.	.	.
.	.	o	.	.	.	.	.	.
=20	=20	=20	=20	=20	=20	=20	=20	=20
1-VII	A:maj	_	.	.	28.232	.	voice	1A 1cc# 1ee
.	.	ver	.	.	.	.	.	.
.	.	.	.	.	.	.	.	.
.	.	.	.	.	.	.	.	.
.	.	the	.	.	.	.	.	.
.	.	sha-	.	.	.	.	.	.
.	.	-dow	.	.	.	.	.	.
=21	=21	=21	=21	=21	=21	=21	=21	=21
1iv	E:min	knows	.	.	29.658	.	voice	1E 1g 1b
.	.	the	.	.	.	.	.	.
.	.	sha-	.	.	.	.	.	.
.	.	-dow's	.	.	.	.	.	.
.	.	me	.	A	.	.	.	.
=22	=22	=22	=22	=22	=22	=22	=22	=22
1iv	E:min	_	.	.	31.084	.	voice	1E 1g 1b
.	.	.	.	.	.	.	.	.
.	.	.	.	.	.	.	.	.
.	.	I	.	.	.	.	.	.
.	.	_	.	.	.	.	.	.
.	.	won't	.	.	.	.	.	.
.	.	crawl	.	.	.	.	.	.
=23	=23	=23	=23	=23	=23	=23	=23	=23
1i	B:min	_	.	.	32.51	newline	voice	1B 1dd 1ff#
.	.	or	.	.	.	.	.	.
.	.	cause	.	.	.	.	.	.
.	.	_	.	.	.	.	.	.
.	.	you	.	.	.	.	.	.
.	.	_	.	.	.	.	.	.
.	.	trou	.	.	.	.	.	.
=24	=24	=24	=24	=24	=24	=24	=24	=24
1i	B:min	_	.	.	33.934	.	voice	1B 1dd 1ff#
.	.	ble	.	.	.	.	.	.
.	.	.	.	.	.	.	.	.
.	.	.	.	.	.	.	.	.
.	.	well,	.	.	.	.	.	.
.	.	that's	.	.	.	.	.	.
.	.	the	.	.	.	.	.	.
=25	=25	=25	=25	=25	=25	=25	=25	=25
1iv	E:min	last	.	.	35.358	.	voice	1E 1g 1b
.	.	thing	.	.	.	.	.	.
.	.	I'd	.	.	.	.	.	.
.	.	e-	.	.	.	.	.	.
.	.	-ver	.	.	.	.	.	.
.	.	_	.	.	.	.	.	.
.	.	do	.	B	.	.	.	.
=26	=26	=26	=26	=26	=26	=26	=26	=26
1iv	E:min	_	.	.	36.782	.	voice	1E 1g 1b
.	.	.	.	.	.	.	.	.
.	.	.	.	.	.	.	.	.
.	.	But	.	.	.	.	.	.
.	.	be-	.	.	.	.	.	.
.	.	-fore	.	.	.	.	.	.
=27	=27	=27	=27	=27	=27	=27	=27	=27
1ic	B:min/5	_	.	.	38.206	newline	voice	1b 1dd 1F#
.	.	I	.	.	.	.	.	.
.	.	leave	.	.	.	.	.	.
.	.	_	.	.	.	.	.	.
.	.	your	.	.	.	.	.	.
.	.	_	.	.	.	.	.	.
.	.	life	.	.	.	.	.	.
=28	=28	=28	=28	=28	=28	=28	=28	=28
1-VIm7	G:7	_	.	.	39.634	.	voice	1G- 1b- 1dd- 1ff#
.	.	com-	.	.	.	.	.	.
.	.	-plete	.	.	.	.	.	.
.	.	_	.	.	.	.	.	.
.	.	ly,	.	.	.	.	.	.
.	.	tell	.	.	.	.	.	.
=29	=29	=29	=29	=29	=29	=29	=29	=29
1V7	F#:7	_	.	.	41.062	.	voice	1F# 1a# 1cc# 1ee
.	.	me	.	A	.	.	.	.
.	.	.	.	.	.	.	.	.
.	.	.	.	.	.	.	.	.
=30	=30	=30	=30	=30	=30	=30	=30	=30
1V7	F#:7	.	.	.	42.491	.	voice	1F# 1a# 1cc# 1ee
.	.	who	.	B	.	.	.	.
.	.	_	.	.	.	.	.	.
.	.	wears	.	.	.	.	.	.
.	.	_	.	.	.	.	.	.
.	.	these	.	.	.	.	.	.
.	.	shoes	.	B	.	.	.	.
.	.	/	.	.	.	.	.	.
=31	=31	=31	=31	=31	=31	=31	=31	=31
*>Letter>B	*>Letter>B	*>Letter>B	*>Letter>B	*>Letter>B	*>Letter>B	*>Letter>B	*>Letter>B	*>Letter>B
*>Label>Refrain	*>Label>Refrain	*>Label>Refrain	*>Label>Refrain	*>Label>Refrain	*>Label>Refrain	*>Label>Refrain	*>Label>Refrain	*>Label>Refrain
1i	B:min	_	.	.	43.919	newline	voice	1B 1dd 1ff#
.	.	.	.	.	.	.	.	.
=32	=32	=32	=32	=32	=32	=32	=32	=32
1i	B:min	.	.	.	45.349	.	voice	1B 1dd 1ff#
.	.	.	.	.	.	.	.	.
.	.	.	.	.	.	.	.	.
.	.	_	_	.	.	.	.	.
.	.	Dar	Dar	.	.	.	.	.
=33	=33	=33	=33	=33	=33	=33	=33	=33
1iv	E:min	_	_	.	46.778	.	voice	1E 1g 1b
.	.	ling	ling	.	.	.	.	.
.	.	.	.	.	.	.	.	.
.	.	.	.	.	.	.	.	.
=34	=34	=34	=34	=34	=34	=34	=34	=34
1iv	E:min	.	.	.	48.208	.	voice	1E 1g 1b
=35	=35	=35	=35	=35	=35	=35	=35	=35
1i	B:min	.	.	.	49.638	newline	voice	1B 1dd 1ff#
=36	=36	=36	=36	=36	=36	=36	=36	=36
1i	B:min	.	.	.	51.062	.	voice	1B 1dd 1ff#
=37	=37	=37	=37	=37	=37	=37	=37	=37
1iv	E:min	.	.	.	52.486	.	voice	1E 1g 1b
=38	=38	=38	=38	=38	=38	=38	=38	=38
1iv	E:min	.	.	.	53.91	.	voice	1E 1g 1b
.	.	.	.	.	.	.	.	.
.	.	Lord	.	.	.	.	.	.
.	.	_	.	.	.	.	.	.
.	.	knows	.	.	.	.	.	.
.	.	the	.	.	.	.	.	.
=39	=39	=39	=39	=39	=39	=39	=39	=39
*>Letter>B	*>Letter>B	*>Letter>B	*>Letter>B	*>Letter>B	*>Letter>B	*>Letter>B	*>Letter>B	*>Letter>B
*>Label>Verse	*>Label>Verse	*>Label>Verse	*>Label>Verse	*>Label>Verse	*>Label>Verse	*>Label>Verse	*>Label>Verse	*>Label>Verse
1i	B:min	days	.	.	55.334	newline	voice	1B 1dd 1ff#
.	.	_	.	.	.	.	.	.
.	.	_	.	.	.	.	.	.
.	.	just	.	.	.	.	.	.
.	.	_	.	.	.	.	.	.
.	.	get	.	.	.	.	.	.
.	.	l-	.	.	.	.	.	.
.	.	-lon	.	.	.	.	.	.
=40	=40	=40	=40	=40	=40	=40	=40	=40
1i	B:min	_	.	.	56.76	.	voice	1B 1dd 1ff#
.	.	ger	.	.	.	.	.	.
.	.	.	.	.	.	.	.	.
.	.	the	.	.	.	.	.	.
.	.	nights	.	.	.	.	.	.
.	.	grow	.	.	.	.	.	.
.	.	cold	.	.	.	.	.	.
=41	=41	=41	=41	=41	=41	=41	=41	=41
1iv	E:min	_	.	.	58.186	.	voice	1E 1g 1b
.	.	_	.	.	.	.	.	.
.	.	with	.	.	.	.	.	.
.	.	you	.	.	.	.	.	.
.	.	on	.	.	.	.	.	.
.	.	my	.	.	.	.	.	.
.	.	_	.	.	.	.	.	.
.	.	mind	.	C	.	.	.	.
=42	=42	=42	=42	=42	=42	=42	=42	=42
1iv	E:min	_	.	.	59.612	.	voice	1E 1g 1b
.	.	.	.	.	.	.	.	.
.	.	.	.	.	.	.	.	.
.	.	And	.	.	.	.	.	.
.	.	I	.	.	.	.	.	.
.	.	feel	.	.	.	.	.	.
=43	=43	=43	=43	=43	=43	=43	=43	=43
1-III	D:maj	_	.	.	61.038	newline	voice	1D- 1f 1a-
.	.	like	.	.	.	.	.	.
.	.	an	.	.	.	.	.	.
.	.	old	.	.	.	.	.	.
.	.	_	.	.	.	.	.	.
.	.	juke	.	.	.	.	.	.
=44	=44	=44	=44	=44	=44	=44	=44	=44
1-VII	A:maj	_	.	.	62.452	.	voice	1A 1cc# 1ee
.	.	box	.	.	.	.	.	.
.	.	.	.	.	.	.	.	.
.	.	.	.	.	.	.	.	.
.	.	pla-	.	.	.	.	.	.
.	.	-ying	.	.	.	.	.	.
.	.	the	.	.	.	.	.	.
=45	=45	=45	=45	=45	=45	=45	=45	=45
1iv	E:min	same	.	.	63.866	.	voice	1E 1g 1b
.	.	song	.	.	.	.	.	.
.	.	all	.	.	.	.	.	.
.	.	the	.	.	.	.	.	.
.	.	_	.	.	.	.	.	.
.	.	time	.	C	.	.	.	.
=46	=46	=46	=46	=46	=46	=46	=46	=46
1iv	E:min	_	.	.	65.28	.	voice	1E 1g 1b
.	.	.	.	.	.	.	.	.
.	.	.	.	.	.	.	.	.
.	.	If	.	.	.	.	.	.
.	.	_	.	.	.	.	.	.
.	.	these	.	.	.	.	.	.
.	.	cra	.	.	.	.	.	.
=47	=47	=47	=47	=47	=47	=47	=47	=47
1i	B:min	_	.	.	66.694	newline	voice	1B 1dd 1ff#
.	.	zy	.	.	.	.	.	.
.	.	dreams	.	.	.	.	.	.
.	.	_	.	.	.	.	.	.
.	.	don't	.	.	.	.	.	.
.	.	_	.	.	.	.	.	.
.	.	kill	.	.	.	.	.	.
=48	=48	=48	=48	=48	=48	=48	=48	=48
1i	B:min	_	.	.	68.116	.	voice	1B 1dd 1ff#
.	.	me	.	.	.	.	.	.
.	.	.	.	.	.	.	.	.
.	.	.	.	.	.	.	.	.
.	.	it's	.	.	.	.	.	.
.	.	more	.	.	.	.	.	.
.	.	than	.	.	.	.	.	.
=49	=49	=49	=49	=49	=49	=49	=49	=49
1iv	E:min	I	.	.	69.538	.	voice	1E 1g 1b
.	.	can	.	.	.	.	.	.
.	.	take	.	.	.	.	.	.
.	.	_	.	.	.	.	.	.
.	.	from	.	.	.	.	.	.
.	.	_	.	.	.	.	.	.
.	.	you	.	B	.	.	.	.
=50	=50	=50	=50	=50	=50	=50	=50	=50
1iv	E:min	_	.	.	70.96	.	voice	1E 1g 1b
.	.	.	.	.	.	.	.	.
.	.	.	.	.	.	.	.	.
.	.	not	.	.	.	.	.	.
.	.	kno-	.	.	.	.	.	.
.	.	-wing	.	.	.	.	.	.
=51	=51	=51	=51	=51	=51	=51	=51	=51
1ic	B:min/5	where	.	.	72.382	newline	voice	1b 1dd 1F#
.	.	or	.	.	.	.	.	.
.	.	when	.	.	.	.	.	.
.	.	_	.	.	.	.	.	.
.	.	I'll	.	.	.	.	.	.
.	.	_	.	.	.	.	.	.
.	.	see	.	.	.	.	.	.
=52	=52	=52	=52	=52	=52	=52	=52	=52
1-VIm7	G:7	_	.	.	73.826	.	voice	1G- 1b- 1dd- 1ff#
.	.	you	.	.	.	.	.	.
.	.	.	.	.	.	.	.	.
.	.	not	.	.	.	.	.	.
.	.	kno-	.	.	.	.	.	.
.	.	-wing	.	.	.	.	.	.
.	.	.	.	.	.	.	.	.
=53	=53	=53	=53	=53	=53	=53	=53	=53
1V7	F#:7	dar-	.	.	75.27	.	voice	1F# 1a# 1cc# 1ee
.	.	-ling	.	.	.	.	.	.
.	.	.	.	.	.	.	.	.
=54	=54	=54	=54	=54	=54	=54	=54	=54
1V7	F#:7	.	.	.	76.714	.	voice	1F# 1a# 1cc# 1ee
.	.	who	.	B	.	.	.	.
.	.	_	.	.	.	.	.	.
.	.	wears	.	.	.	.	.	.
.	.	_	.	.	.	.	.	.
.	.	these	.	.	.	.	.	.
.	.	shoes	.	B	.	.	.	.
.	.	_	.	.	.	.	.	.
=55	=55	=55	=55	=55	=55	=55	=55	=55
*>Letter>B	*>Letter>B	*>Letter>B	*>Letter>B	*>Letter>B	*>Letter>B	*>Letter>B	*>Letter>B	*>Letter>B
*>Label>Refrain	*>Label>Refrain	*>Label>Refrain	*>Label>Refrain	*>Label>Refrain	*>Label>Refrain	*>Label>Refrain	*>Label>Refrain	*>Label>Refrain
1i	B:min	_	.	.	78.158	newline	voice	1B 1dd 1ff#
.	.	.	.	.	.	.	.	.
.	.	.	.	.	.	.	.	.
=56	=56	=56	=56	=56	=56	=56	=56	=56
1i	B:min	.	.	.	79.553	.	voice	1B 1dd 1ff#
.	.	.	.	.	.	.	.	.
.	.	My	.	.	.	.	.	.
.	.	friends	.	.	.	.	.	.
.	.	all	.	.	.	.	.	.
.	.	say	.	.	.	.	.	.
=57	=57	=57	=57	=57	=57	=57	=57	=57
*>Letter>C	*>Letter>C	*>Letter>C	*>Letter>C	*>Letter>C	*>Letter>C	*>Letter>C	*>Letter>C	*>Letter>C
*>Label>Verse	*>Label>Verse	*>Label>Verse	*>Label>Verse	*>Label>Verse	*>Label>Verse	*>Label>Verse	*>Label>Verse	*>Label>Verse
1-III	D:maj	_	.	.	80.948	newline	voice	1D- 1f 1a-
.	.	"don't	4f# 4a	Hoo,	.	.	.	.	.
.	.	8eq	_	.	.	.	.	.	.	.
.	.	4d	go	4f# 4a	hoo	.	.	.	.	.
.	.	8d	to	4r	.	.	.	.	.	.
.	.	[8d	pie	.	.	.	.	.	.	.
=58	=58	=58	=58	=58	=58	=58	=58	=58	=58	=58
.	.	.	.	8f#q 8aq	_	.	.	.	.	.
1-III	D:maj	8d]	_	4.g 4.b	hoo	.	82.382	.	voice	1D- 1f 1a-
.	.	8~E	ces,"	.	.	.	.	.	.
.	.	.	.	.	.	.	.	.
.	.	I	_	.	.	.	.	.
.	.	say,	.	.	.	.	.	.
.	.	"that's	.	.	.	.	.	.	.
.	.	8f	fine	.	.	.	.	.	.	.
=59	=59	=59	=59	=59	=59	=59	=59	=59	=59	=59
1-VIIb	A:maj/3	4e	_	4r	.	.	83.816	.	voice	1a 1C# 1ee
.	.	8e	but	4e 4a	Hoo,	.	.	.	.	.
.	.	[8e	if	.	.	.	.	.	.	.
.	.	8e]	_	4e 4a	hoo	.	.	.	.	.
.	.	4d	I	.	.	.	.	.	.	.
.	.	.	.	4r	.	.	.	.	.	.
.	.	8f	lose	.	.	B	.	.	.	.
=60	=60	=60	=60	=60	=60	=60	=60	=60	=60	=60
.	.	.	.	8eq 8aq	_	.	.	.	.	.
1-VIIb	A:maj/3	4e	_	4.f# 4.b	hoo	.	85.25	.	voice	1a 1C# 1ee
.	.	8r	.	.	.	.	.	.	.	.
.	.	8eq	_	.	.	.	.	.	.	.
.	.	8f	I	8e 8a	_	.	.	.	.	.
.	.	4e	_	2r	.	.	.	.	.	.
.	.	8e	wan-	.	.	.	.	.	.	.
.	.	8d	-na	.	.	.	.	.	.	.
=61	=61	=61	=61	=61	=61	=61	=61	=61	=61	=61
1iv	E:min	4d	know	4r	.	.	86.684	newline	voice	1E 1g 1b
.	.	8d	who's	8e 8g	Hoo,	.	.	.	.	.
.	.	[8d	in	4e 4g	_	.	.	.	.	.
.	.	8d]	_	.	.	.	.	.	.	.
.	.	4e	my	4r	.	.	.	.	.	.
.	.	8eq	_	.	.	.	.	.	.	.
.	.	[8f#	foot	8r	.	.	.	.	.	.
=62	=62	=62	=62	=62	=62	=62	=62	=62	=62	=62
.	.	.	.	8eq 8gq	_	.	.	.	.	.
1iv	E:min	8f#]	_	4.f# 4.a	hoo	.	88.102	.	voice	1E 1g 1b
.	.	4d	steps	.	.	.	.	.	.	.
.	.	8r	.	8e 8g	_	.	.	.	.	.
.	.	8r	.	2r	.	.	.	.	.	.
.	.	8d	I	.	.	.	.	.	.	.
.	.	8d	wan-	.	.	.	.	.	.	.
.	.	8B	-na	.	.	.	.	.	.	.
=63	=63	=63	=63	=63	=63	=63	=63	=63	=63	=63
1iv	E:min	4d	know	1r	.	.	89.521	.	voice	1E 1g 1b
.	.	8B	who	.	.	B	.	.	.	.
.	.	[8d	wears	.	.	.	.	.	.	.
.	.	8d]	_	.	.	.	.	.	.	.
.	.	4e	these	.	.	.	.	.	.	.
.	.	8f	shoes"	.	B	.	.	.	.
=64	=64	=64	=64	=64	=64	=64	=64	=64
1V	F#:maj	_	.	.	90.939	.	voice	1F# 1a# 1cc#
.	.	.	.	.	.	.	.	.
.	.	My	.	.	.	.	.	.
.	.	friends	.	.	.	.	.	.
.	.	all	.	.	.	.	.	.
.	.	think	.	.	.	.	.	.
.	.	_	.	.	.	.	.	.
=65	=65	=65	=65	=65	=65	=65	=65	=65
1-III	D:maj	_	.	.	92.358	newline	voice	1D- 1f 1a-
.	.	I	Hoo,	.	.	.	.	.
.	.	must	hoo	.	.	.	.	.
.	.	be	.	.	.	.	.	.
.	.	.	.	.	.	.	.	.
.	.	cra	.	.	.	.	.	.
=66	=66	=66	=66	=66	=66	=66	=66	=66
.	.	.	_	.	.	.	.	.
1-III	D:maj	_	hoo	.	93.78	.	voice	1D- 1f 1a-
.	.	zy	.	.	.	.	.	.
.	.	.	.	.	.	.	.	.
.	.	I	_	.	.	.	.	.
.	.	see	.	.	.	.	.	.
.	.	the	.	.	.	.	.	.
.	.	facts	.	.	.	.	.	.
=67	=67	=67	=67	=67	=67	=67	=67	=67
1-VIIb	A:maj/3	.	.	.	95.202	.	voice	1a 1C# 1ee
.	.	but	Hoo,	.	.	.	.	.
.	.	if	.	.	.	.	.	.
.	.	.	hoo	.	.	.	.	.
.	.	it's	.	.	.	.	.	.
.	.	_	.	.	.	.	.	.
.	.	true	.	B	.	.	.	.
=68	=68	=68	=68	=68	=68	=68	=68	=68
.	.	.	_	.	.	.	.	.
1-VIIb	A:maj/3	_	hoo	.	96.624	.	voice	1a 1C# 1ee
.	.	.	.	.	.	.	.	.
.	.	_	.	.	.	.	.	.
.	.	I	_	.	.	.	.	.
.	.	_	.	.	.	.	.	.
.	.	wan-	.	.	.	.	.	.
.	.	-na	.	.	.	.	.	.
=69	=69	=69	=69	=69	=69	=69	=69	=69
1i	B:min	know	.	.	98.046	newline	voice	1B 1dd 1ff#
.	.	who's	.	.	.	.	.	.
.	.	in	.	.	.	.	.	.
.	.	_	.	.	.	.	.	.
.	.	my	.	.	.	.	.	.
.	.	_	.	.	.	.	.	.
.	.	foot	.	.	.	.	.	.
=70	=70	=70	=70	=70	=70	=70	=70	=70
1-VI	G:maj	_	.	.	99.482	.	voice	1G- 1b- 1dd-
.	.	steps	.	.	.	.	.	.
.	.	.	.	.	.	.	.	.
.	.	.	.	.	.	.	.	.
.	.	I	.	.	.	.	.	.
.	.	wan-	.	.	.	.	.	.
.	.	-na	.	.	.	.	.	.
=71	=71	=71	=71	=71	=71	=71	=71	=71
2iv7	E:min7	know	.	.	100.918	.	voice	2E 2g 2b 2dd
.	.	.	.	.	.	.	.	.
2-IIIb	D:maj/3	who	.	B	101.636	.	voice	2d- 2F 2a-
.	.	_	.	.	.	.	.	.
=72	=72	=72	=72	=72	=72	=72	=72	=72
2-VI	G:maj	wears	.	.	102.354	.	voice	2G- 2b- 2dd-
.	.	_	.	.	.	.	.	.
.	.	.	.	.	.	.	.	.
.	.	_	.	.	.	.	.	.
.	.	these	.	.	.	.	.	.
2-VII	A:maj	_	.	.	103.072	.	voice	2A 2cc# 2ee
.	.	shoes	.	B	.	.	.	.
.	.	_	.	.	.	.	.	.
=73	=73	=73	=73	=73	=73	=73	=73	=73
*>Letter>B	*>Letter>B	*>Letter>B	*>Letter>B	*>Letter>B	*>Letter>B	*>Letter>B	*>Letter>B	*>Letter>B
*>Label>Refrain	*>Label>Refrain	*>Label>Refrain	*>Label>Refrain	*>Label>Refrain	*>Label>Refrain	*>Label>Refrain	*>Label>Refrain	*>Label>Refrain
1i	B:min	_	.	.	103.79	newline	voice	1B 1dd 1ff#
.	.	.	.	.	.	.	.	.
.	.	.	.	.	.	.	.	.
=74	=74	=74	=74	=74	=74	=74	=74	=74
1i	B:min	.	.	.	105.218	.	voice	1B 1dd 1ff#
.	.	.	.	.	.	.	.	.
.	.	.	.	.	.	.	.	.
.	.	_	_	.	.	.	.	.
.	.	Dar	Dar	.	.	.	.	.
=75	=75	=75	=75	=75	=75	=75	=75	=75
1iv	E:min	_	_	.	106.646	.	voice	1E 1g 1b
.	.	ling	ling	.	.	.	.	.
.	.	.	.	.	.	.	.	.
.	.	.	.	.	.	.	.	.
=76	=76	=76	=76	=76	=76	=76	=76	=76
1iv	E:min	.	.	.	108.074	.	voice	1E 1g 1b
=77	=77	=77	=77	=77	=77	=77	=77	=77
1i	B:min	.	.	.	109.502	newline	voice	1B 1dd 1ff#
=78	=78	=78	=78	=78	=78	=78	=78	=78
1i	B:min	.	.	.	110.914	.	voice	1B 1dd 1ff#
=79	=79	=79	=79	=79	=79	=79	=79	=79
1iv	E:min	.	.	.	112.326	.	voice	1E 1g 1b
=80	=80	=80	=80	=80	=80	=80	=80	=80
1iv	E:min	.	.	.	113.738	.	voice	1E 1g 1b
.	.	.	.	.	.	.	.	.
.	.	Oh,	.	.	.	.	.	.
.	.	_	.	.	.	.	.	.
.	.	and	.	.	.	.	.	.
.	.	it's	.	.	.	.	.	.
.	.	a	.	.	.	.	.	.
=81	=81	=81	=81	=81	=81	=81	=81	=81
*>Letter>D	*>Letter>D	*>Letter>D	*>Letter>D	*>Letter>D	*>Letter>D	*>Letter>D	*>Letter>D	*>Letter>D
*>Label>Chorus	*>Label>Chorus	*>Label>Chorus	*>Label>Chorus	*>Label>Chorus	*>Label>Chorus	*>Label>Chorus	*>Label>Chorus	*>Label>Chorus
1-VI	G:maj	chi-	.	.	115.15	newline	voice	1G- 1b- 1dd-
.	.	-ll-	.	.	.	.	.	.
.	.	-ing	.	.	.	.	.	.
.	.	fee-	.	.	.	.	.	.
.	.	-ling	.	.	.	.	.	.
.	.	.	.	.	.	.	.	.
=82	=82	=82	=82	=82	=82	=82	=82	=82
1-VI	G:maj	.	.	.	116.572	.	voice	1G- 1b- 1dd-
.	.	.	.	.	.	.	.	.
.	.	when	.	.	.	.	.	.
.	.	I	.	.	.	.	.	.
=83	=83	=83	=83	=83	=83	=83	=83	=83
.	.	_	.	.	.	.	.	.
1-VII	A:maj	can't	.	.	117.994	.	voice	1A 1cc# 1ee
.	.	see	.	.	.	.	.	.
.	.	_	.	.	.	.	.	.
.	.	him	.	.	.	.	.	.
.	.	.	.	.	.	.	.	.
=84	=84	=84	=84	=84	=84	=84	=84	=84
1-VII	A:maj	.	.	.	119.416	.	voice	1A 1cc# 1ee
.	.	.	.	.	.	.	.	.
.	.	_	.	.	.	.	.	.
.	.	What	.	.	.	.	.	.
.	.	_	.	.	.	.	.	.
.	.	do	.	.	.	.	.	.
.	.	I	.	.	.	.	.	.
.	.	do	.	B	.	.	.	.
=85	=85	=85	=85	=85	=85	=85	=85	=85
4-III	D:maj	.	.	.	120.838	newline	voice	1D- 1f 1a-
4-VIc	G:maj/5	.	.	.	121.193	.	voice	4g- 4b- 4D-
2-III	D:maj	.	.	.	121.548	.	voice	2D- 2f 2a-
=86	=86	=86	=86	=86	=86	=86	=86	=86
2-VIc	G:maj/5	.	.	.	122.258	.	voice	2g- 2b- 2D-
.	.	.	.	.	.	.	.	.
.	.	_	.	.	.	.	.	.
.	.	when	.	.	.	.	.	.
2-III	D:maj	_	.	.	122.968	.	voice	2D- 2f 2a-
.	.	I	.	.	.	.	.	.
.	.	face	.	.	.	.	.	.
.	.	the	.	.	.	.	.	.
=87	=87	=87	=87	=87	=87	=87	=87	=87
2-III	D:maj	two	Two	B	123.678	.	voice	2D- 2f 2a-
.	.	_	.	.	.	.	.	.
.	.	_	.	.	.	.	.	.
2iv7	E:min7	of	of	.	124.388	.	voice	2E 2g 2b 2dd
=88	=88	=88	=88	=88	=88	=88	=88	=88
1-IIIm7b	D:7/3	you	you	B	125.098	.	voice	1d- 1F 1a- 1cc#
.	.	.	.	.	.	.	.	.
.	.	_	.	.	.	.	.	.
.	.	Oh,	.	.	.	.	.	.
.	.	_	.	.	.	.	.	.
.	.	and	.	.	.	.	.	.
.	.	it's	.	.	.	.	.	.
.	.	a	.	.	.	.	.	.
=89	=89	=89	=89	=89	=89	=89	=89	=89
1-VI	G:maj	chi-	.	.	126.518	newline	voice	1G- 1b- 1dd-
.	.	-ll-	.	.	.	.	.	.
.	.	-ing	.	.	.	.	.	.
.	.	fee-	.	.	.	.	.	.
.	.	-ling	.	.	.	.	.	.
.	.	.	.	.	.	.	.	.
=90	=90	=90	=90	=90	=90	=90	=90	=90
2-VI	G:sus4	.	.	.	127.954	.	voice	2G- 2b- 2dd-
2-VI	G:maj	.	.	.	128.672	.	voice	2G- 2b- 2dd-
.	.	when	.	.	.	.	.	.
.	.	I	.	.	.	.	.	.
=91	=91	=91	=91	=91	=91	=91	=91	=91
.	.	_	.	.	.	.	.	.
1-VII	A:maj	can't	.	.	129.39	.	voice	1A 1cc# 1ee
.	.	see	.	.	.	.	.	.
.	.	_	.	.	.	.	.	.
.	.	him	.	.	.	.	.	.
.	.	.	.	.	.	.	.	.
=92	=92	=92	=92	=92	=92	=92	=92	=92
2-VII	A:sus4	.	.	.	130.826	.	voice	2A 2cc# 2ee
2-VII	A:maj	what	.	.	131.544	.	voice	2A 2cc# 2ee
.	.	do	.	B	.	.	.	.
.	.	I	.	.	.	.	.	.
.	.	do?	.	B	.	.	.	.
=93	=93	=93	=93	=93	=93	=93	=93	=93
1iv	E:min	.	.	.	132.262	newline	voice	1E 1g 1b
=94	=94	=94	=94	=94	=94	=94	=94	=94
1iv	E:min	.	.	.	133.688	.	voice	1E 1g 1b
.	.	What	.	.	.	.	.	.
.	.	do	.	B	.	.	.	.
.	.	I	.	.	.	.	.	.
.	.	_	.	.	.	.	.	.
.	.	do,	.	B	.	.	.	.
=95	=95	=95	=95	=95	=95	=95	=95	=95
1V7	F#:7	_	.	.	135.114	.	voice	1F# 1a# 1cc# 1ee
=96	=96	=96	=96	=96	=96	=96	=96	=96
1V7	F#:7	_	.	.	136.54	.	voice	1F# 1a# 1cc# 1ee
.	.	my	.	.	.	.	.	.
.	.	friends	.	.	.	.	.	.
.	.	_	.	.	.	.	.	.
.	.	all	.	.	.	.	.	.
.	.	say,	.	.	.	.	.	.
=97	=97	=97	=97	=97	=97	=97	=97	=97
*>Letter>C	*>Letter>C	*>Letter>C	*>Letter>C	*>Letter>C	*>Letter>C	*>Letter>C	*>Letter>C	*>Letter>C
*>Label>Verse	*>Label>Verse	*>Label>Verse	*>Label>Verse	*>Label>Verse	*>Label>Verse	*>Label>Verse	*>Label>Verse	*>Label>Verse
1-III	D:maj	_	.	.	137.966	newline	voice	1D- 1f 1a-
.	.	"don't	4f# 4a	Hoo,	.	.	.	.	.
.	.	8eq	_	.	.	.	.	.	.	.
.	.	4d	go	4f# 4a	hoo	.	.	.	.	.
.	.	8d	to	4r	.	.	.	.	.	.
.	.	[8d	pie	.	.	.	.	.	.	.
=98	=98	=98	=98	=98	=98	=98	=98	=98	=98	=98
.	.	.	.	8f#q 8aq	_	.	.	.	.	.
1-III	D:maj	8d]	_	4.g 4.b	hoo	.	139.382	.	voice	1D- 1f 1a-
.	.	8~E	ces,"	.	.	.	.	.	.
.	.	.	.	.	.	.	.	.
.	.	I	_	.	.	.	.	.
.	.	say,	.	.	.	.	.	.
.	.	"that's	.	.	.	.	.	.	.
.	.	8f	fine	.	.	.	.	.	.	.
=99	=99	=99	=99	=99	=99	=99	=99	=99	=99	=99
1-VIIb	A:maj/3	4e	_	4r	.	.	140.798	.	voice	1a 1C# 1ee
.	.	8e	but	4e 4a	Hoo,	.	.	.	.	.
.	.	[8e	if	.	.	.	.	.	.	.
.	.	8e]	_	4e 4a	hoo	.	.	.	.	.
.	.	4d	I	.	.	.	.	.	.	.
.	.	.	.	4r	.	.	.	.	.	.
.	.	8f	lose	.	.	B	.	.	.	.
=100	=100	=100	=100	=100	=100	=100	=100	=100	=100	=100
.	.	.	.	8eq 8aq	_	.	.	.	.	.
1-VIIb	A:maj/3	4e	_	4.f# 4.b	hoo	.	142.214	.	voice	1a 1C# 1ee
.	.	8r	.	.	.	.	.	.	.	.
.	.	8eq	_	.	.	.	.	.	.	.
.	.	8f	I	8e 8a	_	.	.	.	.	.
.	.	4e	_	2r	.	.	.	.	.	.
.	.	8e	wan-	.	.	.	.	.	.	.
.	.	8d	-na	.	.	.	.	.	.	.
=101	=101	=101	=101	=101	=101	=101	=101	=101	=101	=101
1iv	E:min	4d	know	4r	.	.	143.63	newline	voice	1E 1g 1b
.	.	8d	who's	8e 8g	Hoo,	.	.	.	.	.
.	.	[8d	in	4e 4g	_	.	.	.	.	.
.	.	8d]	_	.	.	.	.	.	.	.
.	.	4e	my	4r	.	.	.	.	.	.
.	.	8eq	_	.	.	.	.	.	.	.
.	.	[8f#	foot	8r	.	.	.	.	.	.
=102	=102	=102	=102	=102	=102	=102	=102	=102	=102	=102
.	.	.	.	8eq 8gq	_	.	.	.	.	.
1iv	E:min	8f#]	_	4.f# 4.a	hoo	.	145.051	.	voice	1E 1g 1b
.	.	4d	steps	.	.	.	.	.	.	.
.	.	8r	.	8e 8g	_	.	.	.	.	.
.	.	8r	.	2r	.	.	.	.	.	.
.	.	8f	I	.	.	.	.	.	.	.
.	.	8e	wan-	.	.	.	.	.	.	.
.	.	8d	-na	.	.	.	.	.	.	.
=103	=103	=103	=103	=103	=103	=103	=103	=103	=103	=103
1iv	E:min	4d	know	1r	.	.	146.472	.	voice	1E 1g 1b
.	.	8B	who	.	.	B	.	.	.	.
.	.	[8d	wears	.	.	.	.	.	.	.
.	.	8d]	_	.	.	.	.	.	.	.
.	.	4e	these	.	.	.	.	.	.	.
.	.	8f	shoes"	.	B	.	.	.	.
=104	=104	=104	=104	=104	=104	=104	=104	=104
1V	F#:maj	_	.	.	147.893	.	voice	1F# 1a# 1cc#
.	.	.	.	.	.	.	.	.
.	.	My	.	.	.	.	.	.
.	.	friends	.	.	.	.	.	.
.	.	all	.	.	.	.	.	.
.	.	think	.	.	.	.	.	.
=105	=105	=105	=105	=105	=105	=105	=105	=105
1-III	D:maj	_	.	.	149.314	newline	voice	1D- 1f 1a-
.	.	I	Hoo,	.	.	.	.	.
.	.	must	hoo	.	.	.	.	.
.	.	be	.	.	.	.	.	.
.	.	.	.	.	.	.	.	.
.	.	cra	.	.	.	.	.	.
=106	=106	=106	=106	=106	=106	=106	=106	=106
.	.	.	_	.	.	.	.	.
1-III	D:maj	_	hoo	.	150.741	.	voice	1D- 1f 1a-
.	.	zy	.	.	.	.	.	.
.	.	.	.	.	.	.	.	.
.	.	I	_	.	.	.	.	.
.	.	_	.	.	.	.	.	.
.	.	see	.	.	.	.	.	.
.	.	the	.	.	.	.	.	.
.	.	facts	.	.	.	.	.	.
=107	=107	=107	=107	=107	=107	=107	=107	=107
1-VIIb	A:maj/3	.	.	.	152.168	.	voice	1a 1C# 1ee
.	.	but	Hoo,	.	.	.	.	.
.	.	if	.	.	.	.	.	.
.	.	.	hoo	.	.	.	.	.
.	.	it's	.	.	.	.	.	.
.	.	_	.	.	.	.	.	.
.	.	true	.	B	.	.	.	.
=108	=108	=108	=108	=108	=108	=108	=108	=108
.	.	.	_	.	.	.	.	.
1-VIIb	A:maj/3	_	hoo	.	153.595	.	voice	1a 1C# 1ee
.	.	.	.	.	.	.	.	.
.	.	_	.	.	.	.	.	.
.	.	I	_	.	.	.	.	.
.	.	_	.	.	.	.	.	.
.	.	wan-	.	.	.	.	.	.
.	.	-na	.	.	.	.	.	.
=109	=109	=109	=109	=109	=109	=109	=109	=109
1i	B:min	know	.	.	155.022	newline	voice	1B 1dd 1ff#
.	.	who's	Hoo,	.	.	.	.	.
.	.	in	_	.	.	.	.	.
.	.	_	.	.	.	.	.	.
.	.	my	.	.	.	.	.	.
.	.	_	.	.	.	.	.	.
.	.	foot	.	.	.	.	.	.
=110	=110	=110	=110	=110	=110	=110	=110	=110
.	.	.	_	.	.	.	.	.
1-VI	G:maj	_	hoo	.	156.45	.	voice	1G- 1b- 1dd-
.	.	steps	.	.	.	.	.	.
.	.	.	_	.	.	.	.	.
.	.	.	.	.	.	.	.	.
.	.	I	.	.	.	.	.	.
.	.	wan-	.	.	.	.	.	.
.	.	-na	.	.	.	.	.	.
=111	=111	=111	=111	=111	=111	=111	=111	=111
2iv7	E:min7	know	.	.	157.878	.	voice	2E 2g 2b 2dd
.	.	.	.	.	.	.	.	.
2-IIIb	D:maj/3	who	.	B	158.592	.	voice	2d- 2F 2a-
.	.	_	.	.	.	.	.	.
=112	=112	=112	=112	=112	=112	=112	=112	=112
2-VI	G:maj	wears	.	.	159.306	.	voice	2G- 2b- 2dd-
.	.	_	.	.	.	.	.	.
.	.	.	.	.	.	.	.	.
.	.	_	.	.	.	.	.	.
.	.	these	.	.	.	.	.	.
2-VII	A:maj	_	.	.	160.02	.	voice	2A 2cc# 2ee
.	.	shoes	.	B	.	.	.	.
.	.	_	.	.	.	.	.	.
=113	=113	=113	=113	=113	=113	=113	=113	=113
*>Letter>B	*>Letter>B	*>Letter>B	*>Letter>B	*>Letter>B	*>Letter>B	*>Letter>B	*>Letter>B	*>Letter>B
*>Label>Refrain	*>Label>Refrain	*>Label>Refrain	*>Label>Refrain	*>Label>Refrain	*>Label>Refrain	*>Label>Refrain	*>Label>Refrain	*>Label>Refrain
1i	B:min	_	.	.	160.734	newline	voice	1B 1dd 1ff#
.	.	.	.	.	.	.	.	.
.	.	.	.	.	.	.	.	.
=114	=114	=114	=114	=114	=114	=114	=114	=114
1i	B:min	.	.	.	162.166	.	voice	1B 1dd 1ff#
.	.	.	.	.	.	.	.	.
.	.	.	.	.	.	.	.	.
.	.	_	_	.	.	.	.	.
.	.	Dar	Dar	.	.	.	.	.
=115	=115	=115	=115	=115	=115	=115	=115	=115
1iv	E:min	_	_	.	163.598	.	voice	1E 1g 1b
.	.	ling	ling	.	.	.	.	.
.	.	.	.	.	.	.	.	.
.	.	.	.	.	.	.	.	.
=116	=116	=116	=116	=116	=116	=116	=116	=116
1iv	E:min	.	.	.	165.03	.	voice	1E 1g 1b
=117	=117	=117	=117	=117	=117	=117	=117	=117
1i	B:min	.	.	.	166.462	newline	voice	1B 1dd 1ff#
=118	=118	=118	=118	=118	=118	=118	=118	=118
1i	B:min	.	.	.	167.894	.	voice	1B 1dd 1ff#
.	.	.	.	.	.	.	.	.
.	.	.	.	.	.	.	.	.
.	.	_	_	.	.	.	.	.
.	.	Dar	Dar	.	.	.	.	.
=119	=119	=119	=119	=119	=119	=119	=119	=119
1iv	E:min	_	_	.	169.326	.	voice	1E 1g 1b
.	.	ling	ling	.	.	.	.	.
.	.	.	.	.	.	.	.	.
.	.	.	.	.	.	.	.	.
=120	=120	=120	=120	=120	=120	=120	=120	=120
1iv	E:min	.	.	.	170.758	.	voice	1E 1g 1b
.	.	.	.	.	.	.	.	.
.	.	.	.	.	.	.	.	.
.	.	Uh	.	.	.	.	.	.
=121	=121	=121	=121	=121	=121	=121	=121	=121
*>Letter>A	*>Letter>A	*>Letter>A	*>Letter>A	*>Letter>A	*>Letter>A	*>Letter>A	*>Letter>A	*>Letter>A
*>Label>Chorus	*>Label>Chorus	*>Label>Chorus	*>Label>Chorus	*>Label>Chorus	*>Label>Chorus	*>Label>Chorus	*>Label>Chorus	*>Label>Chorus
1-VI	G:maj	come	.	.	172.19	newline	voice	1G- 1b- 1dd-
.	.	on	.	.	.	.	.	.
.	.	now	.	.	.	.	.	.
.	.	.	.	.	.	.	.	.
.	.	I've	.	.	.	.	.	.
.	.	got	.	.	.	.	.	.
=122	=122	=122	=122	=122	=122	=122	=122	=122
1-VI	G:maj	no-	.	.	173.612	.	voice	1G- 1b- 1dd-
.	.	-thing	.	.	.	.	.	.
.	.	to	.	.	.	.	.	.
.	.	_	.	.	.	.	.	.
.	.	lose,	.	B	.	.	.	.
.	.	_	.	.	.	.	.	.
.	.	I	.	.	.	.	.	.
.	.	wan-	.	.	.	.	.	.
.	.	-na	.	.	.	.	.	.
=123	=123	=123	=123	=123	=123	=123	=123	=123
1-III	D:maj	know,	.	.	175.034	.	voice	1D- 1f 1a-
.	.	wan-	.	.	.	.	.	.
.	.	-na	.	.	.	.	.	.
.	.	know	.	.	.	.	.	.
.	.	.	.	.	.	.	.	.
.	.	who	.	.	.	.	.	.
=124	=124	=124	=124	=124	=124	=124	=124	=124
1-III	D:maj	wears	.	.	176.456	.	voice	1D- 1f 1a-
.	.	these	.	.	.	.	.	.
.	.	shoes?	.	B	.	.	.	.
.	.	_	.	.	.	.	.	.
.	.	_	.	.	.	.	.	.
.	.	Come	.	.	.	.	.	.
=125	=125	=125	=125	=125	=125	=125	=125	=125
1-VI	G:maj	_	.	.	177.878	newline	voice	1G- 1b- 1dd-
.	.	on,	.	.	.	.	.	.
.	.	no	.	.	.	.	.	.
.	.	.	.	.	.	.	.	.
.	.	.	.	.	.	.	.	.
.	.	Got	.	.	.	.	.	.
=126	=126	=126	=126	=126	=126	=126	=126	=126
1-VI	G:maj	no-	.	.	179.294	.	voice	1G- 1b- 1dd-
.	.	-thing	.	.	.	.	.	.
.	.	to	.	.	.	.	.	.
.	.	_	.	.	.	.	.	.
.	.	lose,	.	B	.	.	.	.
.	.	_	.	.	.	.	.	.
.	.	I	.	.	.	.	.	.
.	.	wan-	.	.	.	.	.	.
.	.	-na	.	.	.	.	.	.
=127	=127	=127	=127	=127	=127	=127	=127	=127
1i	B:min	know,	.	.	180.71	.	voice	1B 1dd 1ff#
.	.	wan-	.	.	.	.	.	.
.	.	-na	.	.	.	.	.	.
.	.	know	.	.	.	.	.	.
.	.	.	.	.	.	.	.	.
.	.	who	.	B	.	.	.	.
=128	=128	=128	=128	=128	=128	=128	=128	=128
1i	B:min	wears	.	.	182.126	.	voice	1B 1dd 1ff#
.	.	these	.	.	.	.	.	.
.	.	shoes,	.	B	.	.	.	.
.	.	_	.	.	.	.	.	.
.	.	I	.	.	.	.	.	.
.	.	got	.	.	.	.	.	.
.	.	the	.	.	.	.	.	.
=129	=129	=129	=129	=129	=129	=129	=129	=129
1-VI	G:maj	blues	.	B	183.542	newline	voice	1G- 1b- 1dd-
.	.	.	.	.	.	.	.	.
.	.	.	.	.	.	.	.	.
.	.	.	.	.	.	.	.	.
.	.	W-	.	.	.	.	.	.
=130	=130	=130	=130	=130	=130	=130	=130	=130
1-VI	G:maj	-whe-	.	.	184.956	.	voice	1G- 1b- 1dd-
.	.	-ther	.	.	.	.	.	.
.	.	it's	.	.	.	.	.	.
.	.	true,	.	B	.	.	.	.
.	.	_	.	.	.	.	.	.
.	.	I	.	.	.	.	.	.
.	.	got	.	.	.	.	.	.
.	.	the	.	.	.	.	.	.
=131	=131	=131	=131	=131	=131	=131	=131	=131
1-III	D:maj	blues	.	B	186.37	.	voice	1D- 1f 1a-
.	.	.	.	.	.	.	.	.
.	.	.	.	.	.	.	.	.
.	.	.	.	.	.	.	.	.
.	.	W-	.	.	.	.	.	.
=132	=132	=132	=132	=132	=132	=132	=132	=132
1-III	D:maj	-whe-	.	.	187.784	.	voice	1D- 1f 1a-
.	.	-ther	.	.	.	.	.	.
.	.	it's	.	.	.	.	.	.
.	.	true,	.	B	.	.	.	.
.	.	_	.	.	.	.	.	.
.	.	I	.	.	.	.	.	.
.	.	wan-	.	.	.	.	.	.
.	.	-na	.	.	.	.	.	.
=133	=133	=133	=133	=133	=133	=133	=133	=133
1-VI	G:maj	know	.	.	189.198	newline	voice	1G- 1b- 1dd-
.	.	.	.	.	.	.	.	.
.	.	.	.	.	.	.	.	.
.	.	.	.	.	.	.	.	.
.	.	Got	.	.	.	.	.	.
=134	=134	=134	=134	=134	=134	=134	=134	=134
1-VI	G:maj	no-	.	.	190.624	.	voice	1G- 1b- 1dd-
.	.	-thing	.	.	.	.	.	.
.	.	to	.	.	.	.	.	.
.	.	lose,	.	B	.	.	.	.
.	.	_	.	.	.	.	.	.
.	.	I	.	.	.	.	.	.
.	.	wan-	.	.	.	.	.	.
.	.	-na	.	.	.	.	.	.
=135	=135	=135	=135	=135	=135	=135	=135	=135
1i	B:min	know,	.	.	192.05	.	voice	1B 1dd 1ff#
.	.	I	.	.	.	.	.	.
.	.	wan-	.	.	.	.	.	.
.	.	-na	.	.	.	.	.	.
.	.	know	.	.	.	.	.	.
.	.	.	.	.	.	.	.	.
.	.	.	.	.	.	.	.	.
.	.	who	.	B	.	.	.	.
=136	=136	=136	=136	=136	=136	=136	=136	=136
1i	B:min	wears	.	.	193.476	.	voice	1B 1dd 1ff#
.	.	these	.	.	.	.	.	.
.	.	shoes!	.	B	.	.	.	.
.	.	_	.	.	.	.	.	.
.	.	I	.	.	.	.	.	.
.	.	got	.	.	.	.	.	.
.	.	the	.	.	.	.	.	.
=137	=137	=137	=137	=137	=137	=137	=137	=137
1-VI	G:maj	blues	.	B	194.902	newline	voice	1G- 1b- 1dd-
.	.	.	Hoo,	.	.	.	.	.
.	.	.	hoo	.	.	.	.	.
.	.	.	.	.	.	.	.	.
.	.	_	.	.	.	.	.	.
=138	=138	=138	=138	=138	=138	=138	=138	=138
.	.	.	_	.	.	.	.	.
1-VI	G:maj	whe-	hoo	.	196.325	.	voice	1G- 1b- 1dd-
.	.	-ther	.	.	.	.	.	.
.	.	it's	.	.	.	.	.	.
.	.	true,	_	B	.	.	.	.
.	.	_	.	.	.	.	.	.
.	.	I	.	.	.	.	.	.
.	.	got	.	.	.	.	.	.
.	.	the	.	.	.	.	.	.
=139	=139	=139	=139	=139	=139	=139	=139	=139
1-III	D:maj	blues	.	B	197.749	.	voice	1D- 1f 1a-
.	.	.	Hoo,	.	.	.	.	.
.	.	.	hoo	.	.	.	.	.
.	.	.	.	.	.	.	.	.
.	.	W-	.	.	.	.	.	.
=140	=140	=140	=140	=140	=140	=140	=140	=140
.	.	.	_	.	.	.	.	.
1-III	D:maj	-whe-	hoo	.	199.172	.	voice	1D- 1f 1a-
.	.	-ther	.	.	.	.	.	.
.	.	it's	.	.	.	.	.	.
.	.	true,	_	B	.	.	.	.
.	.	_	.	.	.	.	.	.
.	.	I	.	.	.	.	.	.
.	.	got	.	.	.	.	.	.
.	.	the	.	.	.	.	.	.
=141	=141	=141	=141	=141	=141	=141	=141	=141
1-VI	G:maj	blues	.	B	200.596	newline	voice	1G- 1b- 1dd-
.	.	.	Hoo,	.	.	.	.	.
.	.	.	hoo	.	.	.	.	.
.	.	.	.	.	.	.	.	.
.	.	Got	.	.	.	.	.	.
=142	=142	=142	=142	=142	=142	=142	=142	=142
.	.	.	_	.	.	.	.	.
1-VI	G:maj	no	hoo	.	202.016	.	voice	1G- 1b- 1dd-
.	.	thing	.	.	.	.	.	.
.	.	to	.	.	.	.	.	.
.	.	lose,	_	B	.	.	.	.
.	.	_	.	.	.	.	.	.
.	.	I	.	.	.	.	.	.
.	.	wan	hoo	.	.	.	.	.
.	.	na	.	.	.	.	.	.
=143	=143	=143	=143	=143	=143	=143	=143	=143
1i	B:min	know,	_	.	203.436	.	voice	1B 1dd 1ff#
.	.	I	.	.	.	.	.	.
.	.	wan-	.	.	.	.	.	.
.	.	-na	.	.	.	.	.	.
.	.	know	.	.	.	.	.	.
.	.	.	.	.	.	.	.	.
.	.	.	.	.	.	.	.	.
.	.	who	.	B	.	.	.	.
=144	=144	=144	=144	=144	=144	=144	=144	=144
1i	B:min	wears	.	.	204.856	.	voice	1B 1dd 1ff#
.	.	these	.	.	.	.	.	.
.	.	shoes,	.	B	.	.	.	.
.	.	_	.	.	.	.	.	.
.	.	I	.	.	.	.	.	.
.	.	wan-	.	.	.	.	.	.
.	.	-na	.	.	.	.	.	.
=145	=145	=145	=145	=145	=145	=145	=145	=145
1-VI	G:maj	blues	.	B	206.276	newline	voice	1G- 1b- 1dd-
.	.	.	Hoo,	.	.	.	.	.
.	.	.	hoo	.	.	.	.	.
.	.	.	.	.	.	.	.	.
.	.	W-	.	.	.	.	.	.
=146	=146	=146	=146	=146	=146	=146	=146	=146
.	.	.	_	.	.	.	.	.
1-VI	G:maj	-whe-	hoo	.	207.699	.	voice	1G- 1b- 1dd-
.	.	-ther	.	.	.	.	.	.
.	.	it's	.	.	.	.	.	.
.	.	true,	_	B	.	.	.	.
.	.	_	.	.	.	.	.	.
.	.	I	.	.	.	.	.	.
.	.	got	.	.	.	.	.	.
.	.	the	.	.	.	.	.	.
=147	=147	=147	=147	=147	=147	=147	=147	=147
1-III	D:maj	blues	.	B	209.122	.	voice	1D- 1f 1a-
.	.	.	Hoo,	.	.	.	.	.
.	.	.	hoo	.	.	.	.	.
.	.	.	.	.	.	.	.	.
.	.	W-	.	.	.	.	.	.
=148	=148	=148	=148	=148	=148	=148	=148	=148
.	.	.	_	.	.	.	.	.
1-III	D:maj	-whe-	hoo	.	210.545	.	voice	1D- 1f 1a-
.	.	-ther	.	.	.	.	.	.
.	.	it's	.	.	.	.	.	.
.	.	true,	_	B	.	.	.	.
.	.	_	.	.	.	.	.	.
.	.	I	.	.	.	.	.	.
.	.	wan-	.	.	.	.	.	.
.	.	-na	.	.	.	.	.	.
=149	=149	=149	=149	=149	=149	=149	=149	=149
*>Label>>Fadeout	*>Label>>Fadeout	*>Label>>Fadeout	*>Label>>Fadeout	*>Label>>Fadeout	*>Label>>Fadeout	*>Label>>Fadeout	*>Label>>Fadeout	*>Label>>Fadeout
1-VI	G:maj	know	.	.	211.968	newline	voice	1G- 1b- 1dd-
.	.	.	Hoo,	.	.	.	.	.
.	.	.	hoo	.	.	.	.	.
.	.	.	.	.	.	.	.	.
.	.	Got	.	.	.	.	.	.
=150	=150	=150	=150	=150	=150	=150	=150	=150
.	.	.	_	.	.	.	.	.
1-VI	G:maj	no-	hoo	.	213.403	.	voice	1G- 1b- 1dd-
.	.	-thing	.	.	.	.	.	.
.	.	to	.	.	.	.	.	.
.	.	lose,	_	B	.	.	.	.
.	.	_	.	.	.	.	.	.
.	.	I	.	.	.	.	.	.
.	.	wan-	hoo	.	.	.	.	.
.	.	-na	.	.	.	.	.	.
=151	=151	=151	=151	=151	=151	=151	=151	=151
1i	B:min	know,	_	.	214.839	.	voice	1B 1dd 1ff#
.	.	I	.	.	.	.	.	.
.	.	wan-	.	.	.	.	.	.
.	.	-na	.	.	.	.	.	.
.	.	know	.	.	.	.	.	.
.	.	.	.	.	.	.	.	.
.	.	.	.	.	.	.	.	.
.	.	who	.	B	.	.	.	.
=152	=152	=152	=152	=152	=152	=152	=152	=152
1i	B:min	wears	.	.	216.274	.	voice	1B 1dd 1ff#
.	.	these	.	.	.	.	.	.
.	.	shoes!	.	B	.	.	.	.
.	.	_	.	.	.	.	.	.
.	.	I	.	.	.	.	.	.
.	.	got	.	.	.	.	.	.
.	.	the	.	.	.	.	.	.
=153	=153	=153	=153	=153	=153	=153	=153	=153
1-VI	G:maj	blues	.	B	217.71	newline	voice	1G- 1b- 1dd-
.	.	.	Hoo,	.	.	.	.	.
.	.	.	hoo	.	.	.	.	.
.	.	.	.	.	.	.	.	.
.	.	W-	.	.	.	.	.	.
=154	=154	=154	=154	=154	=154	=154	=154	=154
.	.	.	_	.	.	.	.	.
1-VI	G:maj	-whe-	hoo	.	219.125	.	voice	1G- 1b- 1dd-
.	.	-ther	.	.	.	.	.	.
.	.	it's	.	.	.	.	.	.
.	.	true,	_	B	.	.	.	.
.	.	_	.	.	.	.	.	.
.	.	I	.	.	.	.	.	.
.	.	got	.	.	.	.	.	.
.	.	the	.	.	.	.	.	.
=155	=155	=155	=155	=155	=155	=155	=155	=155
1-III	D:maj	blues	.	B	220.54	.	voice	1D- 1f 1a-
.	.	.	Hoo,	.	.	.	.	.
.	.	.	hoo	.	.	.	.	.
.	.	.	.	.	.	.	.	.
.	.	W-	.	.	.	.	.	.
=156	=156	=156	=156	=156	=156	=156	=156	=156
.	.	.	_	.	.	.	.	.
1-III	D:maj	-whe-	hoo	.	221.954	.	voice	1D- 1f 1a-
.	.	-ther	.	.	.	.	.	.
.	.	it's	.	.	.	.	.	.
.	.	true,	_	B	.	.	.	.
.	.	_	.	.	.	.	.	.
.	.	I	.	.	.	.	.	.
.	.	wan-	.	.	.	.	.	.
.	.	-na	.	.	.	.	.	.
=157	=157	=157	=157	=157	=157	=157	=157	=157
1-VI	G:maj	know	.	.	223.369	newline	voice	1G- 1b- 1dd-
.	.	.	Hoo,	.	.	.	.	.
.	.	.	hoo	.	.	.	.	.
.	.	.	.	.	.	.	.	.
.	.	Got	.	.	.	.	.	.
=158	=158	=158	=158	=158	=158	=158	=158	=158
.	.	.	_	.	.	.	.	.
1-VI	G:maj	no-	hoo	.	224.79	.	voice	1G- 1b- 1dd-
.	.	-thing	.	.	.	.	.	.
.	.	to	.	.	.	.	.	.
.	.	lose,	_	B	.	.	.	.
.	.	_	.	.	.	.	.	.
.	.	I	.	.	.	.	.	.
.	.	wan-	hoo	.	.	.	.	.
.	.	-na	.	.	.	.	.	.
=159	=159	=159	=159	=159	=159	=159	=159	=159
1i	B:min	know,	_	.	226.211	.	voice	1B 1dd 1ff#
.	.	I	.	.	.	.	.	.
.	.	wan-	.	.	.	.	.	.
.	.	-na	.	.	.	.	.	.
.	.	know	.	.	.	.	.	.
.	.	.	.	.	.	.	.	.
.	.	.	.	.	.	.	.	.
.	.	who	.	B	.	.	.	.
=160	=160	=160	=160	=160	=160	=160	=160	=160
1i	B:min	wears	.	.	227.632	.	voice	1B 1dd 1ff#
.	.	these	.	.	.	.	.	.
.	.	shoes!	.	B	.	.	.	.
.	.	_	.	.	.	.	.	.
.	.	I	.	.	.	.	.	.
.	.	got	.	.	.	.	.	.
.	.	the	.	.	.	.	.	.
=161	=161	=161	=161	=161	=161	=161	=161	=161
.	.	_	.	.	.	.	.	.
1-VI	G:maj	blues	.	B	229.053	newline	voice	1G- 1b- 1dd-
.	.	.	Hoo,	.	.	.	.	.
.	.	.	hoo	.	.	.	.	.
.	.	.	.	.	.	.	.	.
=162	=162	=162	=162	=162	=162	=162	=162	=162
.	.	.	_	.	.	.	.	.
1-VI	G:maj	.	hoo	.	230.473	.	voice	1G- 1b- 1dd-
.	.	.	.	.	.	.	.	.
.	.	Hoo,	_	.	.	.	.	.
.	.	_	.	.	.	.	.	.
.	.	I	.	.	.	.	.	.
.	.	got	.	.	.	.	.	.
.	.	the	.	.	.	.	.	.
=163	=163	=163	=163	=163	=163	=163	=163	=163
.	.	_	.	.	.	.	.	.
1-III	D:maj	blues	.	B	231.893	.	voice	1D- 1f 1a-
.	.	.	Hoo,	.	.	.	.	.
.	.	.	hoo	.	.	.	.	.
.	.	.	.	.	.	.	.	.
=164	=164	=164	=164	=164	=164	=164	=164	=164
.	.	.	_	.	.	.	.	.
1-III	D:maj	.	hoo	.	233.313	.	voice	1D- 1f 1a-
.	.	.	.	.	.	.	.	.
.	.	Hoo,	_	.	.	.	.	.
.	.	_	.	.	.	.	.	.
.	.	_	.	.	.	.	.	.
.	.	hoo	.	.	.	.	.	.
.	.	_	.	.	.	.	.	.
=165	=165	=165	=165	=165	=165	=165	=165	=165
1-VI	G:maj	_	.	.	234.733	newline	voice	1G- 1b- 1dd-
.	.	.	Hoo,	.	.	.	.	.
.	.	.	hoo	.	.	.	.	.
.	.	.	.	.	.	.	.	.
.	.	Who	.	B	.	.	.	.
=166	=166	=166	=166	=166	=166	=166	=166	=166
.	.	.	_	.	.	.	.	.
1-VI	G:maj	_	hoo	.	236.145	.	voice	1G- 1b- 1dd-
.	.	_	.	.	.	.	.	.
.	.	wears	_	.	.	.	.	.
.	.	_	.	.	.	.	.	.
.	.	these	.	.	.	.	.	.
.	.	.	hoo	.	.	.	.	.
.	.	shoes	.	B	.	.	.	.
=167	=167	=167	=167	=167	=167	=167	=167	=167
1i	B:min	_	_	.	237.556	.	voice	1B 1dd 1ff#
.	.	.	.	.	.	.	.	.
.	.	.	.	.	.	.	.	.
.	.	.	.	.	.	.	.	.
=168	=168	=168	=168	=168	=168	=168	=168	=168
1i	B:min	.	.	.	238.967	.	voice	1B 1dd 1ff#
.	.	.	.	.	.	.	.	.
.	.	Ah,	.	.	.	.	.	.
.	.	_	.	.	.	.	.	.
.	.	I	.	.	.	.	.	.
.	.	got	.	.	.	.	.	.
.	.	the	.	.	.	.	.	.
=169	=169	=169	=169	=169	=169	=169	=169	=169
.	.	_	.	.	.	.	.	.
1-VI	G:maj	blues	.	B	240.201	.	voice	1G- 1b- 1dd-
.	.	.	Hoo	.	.	.	.	.
.	.	.	hoo	.	.	.	.	.
.	.	.	.	.	.	.	.	.
=170	=170	=170	=170	=170	=170	=170	=170	=170
.	.	.	_	.	.	.	.	.
1-VI	G:maj	.	hoo	.	240.378	.	voice	1G- 1b- 1dd-
.	.	.	_	.	.	.	.	.
.	.	.	.	.	.	.	.	.
=171	=171	=171	=171	=171	=171	=171	=171	=171
1-III	D:maj	.	.	.	240.731	.	voice	1D- 1f 1a-
1r;	N	.	.	.	240.907	.	r	1r;
1r;	N	.	.	.	242.834	.	r	1r;
*-	*-	*-	*-	*-	*-	*-	*-	*-
!!!BillboardChartDate: 1984/11/17
!!!BillboardPeak: 16
!!!BillboardWeeksOnChart: 14
!!!COC: Elton John
!!!ENC: Nathaniel Condit-Schultz
!!!EST: Awating manual error checking and editing.
!!!OTL: Who Wears These Shoes?
!!!RDF**harte: Chris Harte's syntax, used by MIREX
!!!RDF**harmony: **recip + pitch class of root + harmonic quality
!!!RDF**leadinstrument: original McGill primary instrumentation annotation
!!!RDF**phrase: newline = linebreak in original McGill transcription
!!!RDF**timestamp: McGill audio timestamp in seconds
!!!RDT: 2017/01/12/
!!!SampleActualRank: 35
!!!SampleID#: 1269
!!!SampleTargetRank: 36
!!!MBID: f64b87e5-f378-4dc2-829b-ee697b284115
